X: 25956
T: Maverick Angels
R: reel
M: 4/4
K: Bminor
|:fBBB fgef|^dA/A/A dAeA|f BB2 fgef|^dBfB gfeg|
fBBB fgef|^d AA2 edef|^dBBB Afff|1 e^ded ~B3 g:|2 e^ded B3 b||
|:c'bbb ba/a/a|afff feef|a z ~f2 fez2|e^def defb|
c'bbb ba/a/a|afff feef|a z ~f2 feee|1 e^ded ~B3 b:|2 e^ded Bc^de||

